svg/FoundationIcons/fi-database.svg

<svg xmlns="http://www.w3.org/2000/svg" viewBox="0 0 100 100" enable-background="new 0 0 100 100"><path d="m32.948 24.348h-.011c-.057-2.327-1.971-4.133-4.3-4.165v-.006h-15.69v.011c-2.307.057-4.067 1.852-4.119 4.161h-.001v51.2h.008c.043 2.3 1.838 4.089 4.121 4.178v.097h15.69c2.401-.0001 4.311-1.875 4.311-4.274 0 0 0-.0001 0-.0001v-51.2m-12.07 50.49c-3.443 0-6.233-2.792-6.233-6.234 0-3.443 2.791-6.234 6.233-6.234 3.444 0 6.235 2.791 6.235 6.234 0 3.443-2.791 6.234-6.235 6.234m7.078-22.41h-14.155v-27.26h14.155v27.26"/><path d="m62.06 24.348h-.011c-.057-2.327-1.971-4.133-4.3-4.165v-.006h-15.69v.011c-2.307.057-4.067 1.852-4.119 4.161h-.001v51.2h.008c.043 2.3 1.838 4.089 4.121 4.178v.097h15.69c2.401-.0001 4.311-1.875 4.311-4.274 0 0 0-.0001 0-.0001v-51.2m-12.07 50.49c-3.443 0-6.233-2.792-6.233-6.234 0-3.443 2.791-6.234 6.233-6.234 3.444 0 6.235 2.791 6.235 6.234 0 3.443-2.791 6.234-6.235 6.234m7.078-22.41h-14.15v-27.26h14.155v27.26z"/><path d="m91.18 24.348h-.011c-.057-2.327-1.971-4.133-4.3-4.165v-.006h-15.69v.011c-2.307.057-4.067 1.852-4.119 4.161h-.001v51.2h.008c.043 2.3 1.838 4.089 4.121 4.178v.097h15.69c2.401-.0001 4.311-1.875 4.311-4.274 0 0 0-.0001 0-.0001v-51.2m-12.06 50.49c-3.443 0-6.233-2.792-6.233-6.234 0-3.443 2.791-6.234 6.233-6.234 3.444 0 6.235 2.791 6.235 6.234 0 3.443-2.792 6.234-6.235 6.234m7.078-22.41h-14.155v-27.26h14.155v27.26"/></svg>

<?xml version="1.0" encoding="utf-8"?>
<!-- Generator: Adobe Illustrator 17.0.0, SVG Export Plug-In . SVG Version: 6.00 Build 0)  -->
<!DOCTYPE svg PUBLIC "-//W3C//DTD SVG 1.1//EN" "http://www.w3.org/Graphics/SVG/1.1/DTD/svg11.dtd">
<svg version="1.1" id="Layer_1" xmlns="http://www.w3.org/2000/svg" xmlns:xlink="http://www.w3.org/1999/xlink" x="0px" y="0px"
	 width="100px" height="100px" viewBox="0 0 100 100" enable-background="new 0 0 100 100" xml:space="preserve">
<g>
	<g>
		<path d="M32.948,24.348h-0.011c-0.057-2.327-1.971-4.133-4.3-4.165v-0.006h-15.69v0.011c-2.307,0.057-4.067,1.852-4.119,4.161
			h-0.01v51.2h0.008c0.043,2.3,1.838,4.089,4.121,4.178v0.097h15.69v0c2.401-0.001,4.311-1.875,4.311-4.274c0,0,0-0.001,0-0.001h0
			V24.348z M20.882,74.836c-3.443,0-6.233-2.792-6.233-6.234c0-3.443,2.791-6.234,6.233-6.234c3.444,0,6.235,2.791,6.235,6.234
			C27.117,72.045,24.326,74.836,20.882,74.836z M27.96,52.426H13.805V25.164H27.96V52.426z"/>
	</g>
	<g>
		<path d="M62.065,24.348h-0.011c-0.057-2.327-1.971-4.133-4.3-4.165v-0.006h-15.69v0.011c-2.307,0.057-4.067,1.852-4.119,4.161
			h-0.01v51.2h0.008c0.043,2.3,1.838,4.089,4.121,4.178v0.097h15.69v0c2.401-0.001,4.311-1.875,4.311-4.274c0,0,0-0.001,0-0.001h0
			V24.348z M49.999,74.836c-3.443,0-6.233-2.792-6.233-6.234c0-3.443,2.791-6.234,6.233-6.234c3.444,0,6.235,2.791,6.235,6.234
			C56.234,72.045,53.443,74.836,49.999,74.836z M57.077,52.426H42.923V25.164h14.155V52.426z"/>
	</g>
	<g>
		<path d="M91.182,24.348h-0.011c-0.057-2.327-1.971-4.133-4.3-4.165v-0.006h-15.69v0.011c-2.307,0.057-4.067,1.852-4.119,4.161
			h-0.01v51.2h0.008c0.043,2.3,1.838,4.089,4.121,4.178v0.097h15.69v0c2.401-0.001,4.311-1.875,4.311-4.274c0,0,0-0.001,0-0.001h0
			V24.348z M79.117,74.836c-3.443,0-6.233-2.792-6.233-6.234c0-3.443,2.791-6.234,6.233-6.234c3.444,0,6.235,2.791,6.235,6.234
			C85.352,72.045,82.56,74.836,79.117,74.836z M86.195,52.426H72.04V25.164h14.155V52.426z"/>
	</g>
</g>
</svg>
